public/svg/aws.svg

<svg xmlns="http://www.w3.org/2000/svg" width="24" height="24" fill="none" xmlns:v="https://vecta.io/nano"><path d="M7.002 15.114l-2.196.948 2.034.876 2.358-.876-2.196-.948zm-3.3 1.188l-.078 4.272 3.216 1.428v-4.44l-3.144-1.26h.006zm6.6 0l-2.904 1.11V21.6l2.91-1.188v-4.11h-.006zM13.788 3l-2.22.948 2.052.876 2.358-.876L13.776 3h.012zM10.71 4.26v4.278l2.748.798.09-3.888L10.71 4.26zm6.144.24l-2.598 1.116v4.2l2.598-1.188V4.5zM3.378 9.018l-2.196.942 2.034.876 2.358-.876-2.196-.948v.006zM.078 10.2L0 14.478l3.216 1.428v-4.44l-3.144-1.26.006-.006zm6.606 0L3.78 11.316v4.188l2.904-1.188v-4.11-.006zm3.78-1.35l-2.202.954 2.04.876 2.358-.876-2.196-.954zm-3.306 1.194l-.078 4.272 3.222 1.428v-4.44l-3.144-1.26zm6.612 0l-2.91 1.116v4.188l2.91-1.188v-4.116zM20.694 3l-2.196.948 2.034.876 2.364-.876L20.688 3h.006zm-3.3 1.188l-.078 4.272 3.216 1.428v-4.44l-3.144-1.26h.006zm6.606 0l-2.904 1.116v4.182L24 8.298v-4.11z" fill="#f7a80d"/></svg>

<svg width="24" height="24" viewBox="0 0 24 24" fill="none" xmlns="http://www.w3.org/2000/svg">
<path d="M7.002 15.114L4.806 16.062L6.84 16.938L9.198 16.062L7.002 15.114ZM3.702 16.302L3.624 20.574L6.84 22.002V17.562L3.696 16.302H3.702ZM10.302 16.302L7.398 17.412V21.6L10.308 20.412V16.302H10.302ZM13.788 3L11.568 3.948L13.62 4.824L15.978 3.948L13.776 3H13.788ZM10.71 4.26V8.538L13.458 9.336L13.548 5.448L10.71 4.26ZM16.854 4.5L14.256 5.616V9.816L16.854 8.628V4.5ZM3.378 9.018L1.182 9.96L3.216 10.836L5.574 9.96L3.378 9.012V9.018ZM0.078 10.2L0 14.478L3.216 15.906V11.466L0.072 10.206L0.078 10.2ZM6.684 10.2L3.78 11.316V15.504L6.684 14.316V10.206V10.2ZM10.464 8.85L8.262 9.804L10.302 10.68L12.66 9.804L10.464 8.85ZM7.158 10.044L7.08 14.316L10.302 15.744V11.304L7.158 10.044ZM13.77 10.044L10.86 11.16V15.348L13.77 14.16V10.044ZM20.694 3L18.498 3.948L20.532 4.824L22.896 3.948L20.688 3H20.694ZM17.394 4.188L17.316 8.46L20.532 9.888V5.448L17.388 4.188H17.394ZM24 4.188L21.096 5.304V9.486L24 8.298V4.188Z" fill="#F7A80D"/>
</svg>
